X: 9802
T:Barren Rocks of Aden, The
R:March
Z:<cfalt@trytel.com> www.trytel.com/~cfalt/Fiddle/The_List.abc
M:2/4
L:1/8
K:D
d/e/|"D"f>g fe|df Ad|"A7"ce Ae|"D"fA de|!
f>g fe|df Ad|"A7"ce Ae|"D"d2 d:|!
f/g/|"D"a>f df|"A7"ef A (e/f/)|ge ce|"D"df A (f/g/)|!
a>f df|"A7"ef A (e/f/)|ge ce|"D"d2 df/g/|!
L:1/16
af df af df|"A7"e2 f2 A2  (ef)|ge ce ge ce|"D"d2 f2 A2  (fg)|af df af df|!
"A7"e2 f2 A2  (ef)|g2 e2 c2 e2|"D"d4 d4||
